X:1
T:Stand Up, Stand Up for Jesus
T:Stand Up, Stand Up for Jesus
T:Adam Geibel, 1901
T:George Duffield, Jr., 1858
T:Public Domain Courtesy of the Cyber Hymnal™
T:Public Domain Courtesy of the Cyber Hymnal™
C:Adam Geibel, 1901
Z:Public Domain
Z:Courtesy of the Cyber Hymnal™
%%score ( 1 2 ) ( 3 4 )
L:1/8
Q:1/4=110
M:none
K:F
V:1 treble 
V:2 treble 
V:3 bass 
V:4 bass 
V:1
 C2 |"^Unison" [A,CA]2 [A,^CA]2 [A,DA]2 [A,_DA]2 | A4 [A,^C]2 [A,DA]2 [A,_DA]2 | %3
w: 1.~Stand|up, stand up for|Je- sus, Ye sol-|
w: 2.~Stand|up, stand up for|Je- sus, The trum-|
w: 3.~Stand|up, stand up for|Je- sus, The strife|
 [A,CA]2 [CF]2 [B,CE]2 [A,CF]2 | B6 ([CF]2 [CE]2) C2 | [CB]2 [^CB]2 [DB]2 [_DB]2 | %6
w: * diers of the|cross; Lift * high|His roy- al ban-|
w: * pet call o-|bey; Forth * to|the might- y con-|
w: * will not be|long; This * day|the noise of bat-|
 B4 [DB]2 [_DB]2 | [CB]2 [CEG]2 [CDF]2 [CEG]2 | [CFA]6 [Cc]2 | [Cc]2 [CFA]2 [D^Fd]2 [DFA]2 | %10
w: ner, It must|not suf- fer loss.|From vic-|t’ry un- to vic-|
w: flict, In this|His glor- ious day.|Ye that|are brave now serve|
w: tle, The next|the vic- tor’s song.|To him|who o- ver- com-|
 [_EAc]4 [DGB]2 [_DFB]2 | [CEB]2 [CEG]2 [CEc]2 [CEG]2 | [CFA]6 A2 | A2 E2 [A,DF]2 [DG]2 | %14
w: t’ry His ar-|my shall He lead,|Till ev-|ery foe is van-|
w: Him A- gainst|un- num- bered foes;|Let cour-|age rise with dan-|
w: eth A crown|of life shall be;|They with|the King of glo-|
 A4 [A,=CA]2 [A,A]2 | A2 E2 [A,DF]2 [DG]2 | ([^CA]4 [=CEB^c]2) ||"^Refrain" C2 | [FA]6 [^DA]2 | %19
w: quished, And Christ|is Lord in- deed.||||
w: ger, And strength|to strength op- pose.|Stand *|up|for Je-|
w: ry Shall reign|e- ter- nal- ly.||||
 [Ec]2 [EB]2 z2 C2 | [EG]2 [^D^F]2 [EG]2 [E^d]2 | c6 [GB]2 | [^Fd]2 [FA]2 [GB]2 [GB]2 | %23
w: ||||
w: sus, Ye sol-|diers of the cross;|Lift high|His roy- al ban-|
w: ||||
 ([Gc]2 [EG]2) [FA]2 [_EA]2 | [DA]2 [DG]2 z2 [Fd]2 | [Fc]4 F4 | [EA] [EG]6 z | !fermata![CF]6 |] %28
w: |||||
w: ner, * It must|not, it must|not suf-|fer loss.||
w: |||||
V:2
 C2 | x8 | [A,^C]2 x8 | x8 | ([CG]2 C2) x8 | x8 | (C2 ^C2) x4 | x8 | x8 | x8 | x8 | x8 | x8 | %13
 [A,^C]4 x4 | (^C2 D2) x4 | [A,^C]4 x4 | x6 || C2 | x8 | x6 C2 | x8 | (F2 E2 F2) x2 | x8 | x8 | %24
 x8 | x4 F4 | x8 | x6 |] %28
V:3
 C,2 | [C,F,]2 [^C,F,]2 [D,F,]2 [_D,F,]2 | [C,F,]2 [^C,F,]2 [D,F,]2 [_D,F,]2 x2 | %3
w: ~|~ ~ ~ ~|~ ~ ~ ~|
 [F,,C,F,]2 [A,,A,]2 [G,,G,]2 [F,,F,]2 | ([E,,E,]2 [D,,D,]2 [C,,C,]2) C,2 x4 | %5
w: ~ ~ ~ ~|~ * * ~|
 [C,,C,]2 [C,G,B,]2 [C,G,B,]2 [C,G,B,]2 | ([C,,C,]2 [C,G,B,]2) [C,G,B,]2 [C,G,B,]2 | %7
w: ~ ~ ~ ~|~ * ~ ~|
 [C,,C,]2 [B,,B,]2 [A,,A,]2 [G,,G,]2 | ([F,,F,]2 [C,F,A,]2 [C,F,A,]2) z2 | %9
w: ~ ~ ~ ~|~ * *|
 [F,,F,]2 [C,F,A,]2 [D,,D,]2 [D,A,C]2 | (G,,2 D,2) G,2 z2 | [C,,C,]2 [C,G,B,]2 [C,,C,]2 [C,G,B,]2 | %12
w: ~ ~ ~ ~|~ * ~|~ ~ ~ ~|
 ([F,,F,]2 [C,F,A,]2 [C,F,A,]2) A,2 | [A,,E,]4 [D,F,]2 [B,,D,G,]2 | (E,2 F,2) E,2 z2 | %15
w: ~ * * ~|~ ~ ~|~ * ~|
 [A,,E,]4 [D,F,]2 [B,,D,G,]2 | ([A,,E,]4 [G,,G,]2) || C,2 | [F,C]2 [C,C]2 [F,C]2 [^F,C]2 | %19
w: ~ ~ ~|~ *|Stand|up, stand up for|
 [G,C]2 [G,C]2 z2 [C,C]2 | [C,B,]2 [C,A,]2 [C,B,]2 [B,C]2 | [A,C]2 [G,B,]2 [F,A,]2 [_E,A,]2 | %22
w: Je- sus, *|||
 [D,A,]2 [D,D]2 [G,D]2 [F,_D]2 | C4 [F,C]2 [F,C]2 | [B,,B,]2 [B,,B,]2 z2 [=B,,^A,]2 | %25
w: |||
 [C,A,]4 [D,A,]4 | [C,C] [C,B,]6 z | !fermata![F,,A,]6 |] %28
w: |||
V:4
 C,2 | F,,8 | F,,8 x2 | x8 | x12 | x8 | x8 | x8 | x8 | x8 | x8 | x8 | x8 | x8 | A,,6 x2 | x8 | %16
 x6 || C,2 | x8 | x8 | x8 | x8 | x8 | (E,2 C,2) x4 | x8 | x8 | x8 | x6 |] %28

